X: 1
T: POTHOUGE - JIG
B: Ryan's Mammoth Collection of Fiddle Tunes
R: jig
M: 9/8
L: 1/8
Z: Contributed 20021212144149 by John Chambers jmchambers:rcn.com
K: C
   vG2G GFE GFE | G2G GFE ABc | G2G GFE GFE | A2A A2G ABc :|
|: vcef gec BAG | ceg gec efg ceg gec BAG | A2A A2G ABc :|
   vEGE cGE cGE | EGE cGE ABc | EGE cGE cGE | A2A A2G ABc \
|  vEGE cGE cGE | EGE cGE ABc | EGE cGE cGE | A2A A2G ABc |]
